Adwaita++-Dark/actions/22/zoom-fit-selection.svg

<svg height="22" viewBox="0 0 22 22" width="22" xmlns="http://www.w3.org/2000/svg">
  <path d="m3.1894531 2.0039062c-.6627 0-1.1875.5488901-1.1875 1.21875v3.78125h2v-3h3v-2zm5.8125 0v2h2.9999999v3h2v-3.78125c0-.6697598-.5248-1.21875-1.1875-1.21875zm-3.0117187 3.9960938v4h4v-4zm-3.9882813 3.0039062v3.7812498c0 .66976.5248 1.21875 1.1875 1.21875h3.8125v-2h-3v-2.9999998zm9.9999999 0v2.9999998h-2.9999999v2h3.8124999c.6627 0 1.1875-.54889 1.1875-1.21875v-3.7812498z" fill="#e6ddff" transform="translate(3 3)"/>
</svg>

<svg xmlns="http://www.w3.org/2000/svg" width="22" height="22" viewBox="0 0 22 22">
 <defs>
  <style id="current-color-scheme" type="text/css">
   .ColorScheme-Text { color:#E6DDFF; } .ColorScheme-Highlight { color:#4285f4; }
  </style>
 </defs>
 <path style="fill:currentColor" class="ColorScheme-Text" d="M 3.1894531 2.0039062 C 2.5267531 2.0039062 2.0019531 2.5527963 2.0019531 3.2226562 L 2.0019531 7.0039062 L 4.0019531 7.0039062 L 4.0019531 4.0039062 L 7.0019531 4.0039062 L 7.0019531 2.0039062 L 3.1894531 2.0039062 z M 9.0019531 2.0039062 L 9.0019531 4.0039062 L 12.001953 4.0039062 L 12.001953 7.0039062 L 14.001953 7.0039062 L 14.001953 3.2226562 C 14.001953 2.5528964 13.477153 2.0039062 12.814453 2.0039062 L 9.0019531 2.0039062 z M 5.9902344 6 L 5.9902344 10 L 9.9902344 10 L 9.9902344 6 L 5.9902344 6 z M 2.0019531 9.0039062 L 2.0019531 12.785156 C 2.0019531 13.454916 2.5267531 14.003906 3.1894531 14.003906 L 7.0019531 14.003906 L 7.0019531 12.003906 L 4.0019531 12.003906 L 4.0019531 9.0039062 L 2.0019531 9.0039062 z M 12.001953 9.0039062 L 12.001953 12.003906 L 9.0019531 12.003906 L 9.0019531 14.003906 L 12.814453 14.003906 C 13.477153 14.003906 14.001953 13.455016 14.001953 12.785156 L 14.001953 9.0039062 L 12.001953 9.0039062 z" transform="translate(3 3)"/>
</svg>
